X: 10851
T: THE DRAM SHELL -- Reel
C: Fraser
R: reel
B: K\"ohler's Violin Repository, v.1, 1885 p.85 #1
F: http://www.archive.org/details/klersviolinrepos01edin
Z: 2012 John Chambers <jc:trillian.mit.edu>
M: C|
L: 1/8
K: F#m
uC |\
F3(a f{gf}e)cA | ce^dc BAG^E | F3(a f{gf}e)cf | ecBG AFF :|
ug |\
afcf cfaf | egbe gbeg | afcf c(faf) | ecBG AFF |]
g |\
afcf cfaf | gebe gbe(f/g/) | a(gfa) efcf | ecBG AF"_Fine."F "^D.C."|]

%%sep 2 1 500

